X: 20594
T: IVES HORNPIPE
C:
%R: hornpipe, reel
B: Elias Howe "The Musician's Companion" 1843 p.59 #4
S: http://imslp.org/wiki/The_Musician's_Companion_(Howe,_Elias)
Z: 2015 John Chambers <jc:trillian.mit.edu>
M: 2/4
L: 1/16
K: A
% - - - - - - - - - - - - - - - - - - - - - - - - -
ed |\
c2c2 cBcd | B2B2B2 cd | eccA dcBG | A2A2A2 ed |\
c2c2c2 ag | fgfd B2 ba | gbge faf^d | e2e2 e2 :|
|: eg |\
gfge fdcd | efed B2 de | fedc edcB | AGBG A2E2 |\
cAFE d2B2 | cAaf e2d2 | cecA BdBG | A2A2 A2 :|
% - - - - - - - - - - - - - - - - - - - - - - - - -

%%sep 1 1 500

